hero/solid/clipboard-document-check.svg

<svg width="24" height="24" viewBox="0 0 24 24" fill="none" xmlns="http://www.w3.org/2000/svg">
<path fill-rule="evenodd" clip-rule="evenodd" d="M7.50183 6H11.2477L11.25 6H14.6299C16.4915 6.00268 17.9999 7.51269 17.9999 9.375V18.75C19.6567 18.75 20.9999 17.4068 20.9999 15.75V6.10821C20.9999 4.60282 19.8751 3.2966 18.3358 3.16884C18.1121 3.15027 17.8879 3.13321 17.6632 3.11767C17.1633 2.15647 16.1583 1.5 15 1.5H13.5C12.3417 1.5 11.3367 2.15647 10.8368 3.11765C10.6121 3.13319 10.3878 3.15026 10.1639 3.16884C8.66165 3.29353 7.55421 4.54069 7.50183 6ZM13.5 3C12.6716 3 12 3.67157 12 4.5H16.5C16.5 3.67157 15.8284 3 15 3H13.5Z" fill="#0F172A"/>
<path fill-rule="evenodd" clip-rule="evenodd" d="M3 9.375C3 8.33947 3.83947 7.5 4.875 7.5H14.625C15.6605 7.5 16.5 8.33947 16.5 9.375V20.625C16.5 21.6605 15.6605 22.5 14.625 22.5H4.875C3.83947 22.5 3 21.6605 3 20.625V9.375ZM12.5857 13.9685C12.8444 13.6451 12.792 13.1731 12.4685 12.9143C12.1451 12.6556 11.6731 12.708 11.4143 13.0315L8.93781 16.1272L8.03033 15.2197C7.73744 14.9268 7.26256 14.9268 6.96967 15.2197C6.67678 15.5126 6.67678 15.9874 6.96967 16.2803L8.46967 17.7803C8.62052 17.9312 8.82847 18.0107 9.04148 17.9989C9.25448 17.9871 9.45238 17.8851 9.58565 17.7185L12.5857 13.9685Z" fill="#0F172A"/>
</svg>

<svg viewBox="0 0 24 24" xmlns="http://www.w3.org/2000/svg"><g fill-rule="evenodd"><path d="M7.5 6h7.128v0c1.86 0 3.37 1.51 3.37 3.37v9.37 0c1.65 0 3-1.35 3-3V6.09c0-1.51-1.125-2.82-2.67-2.94V3.14c-.23-.02-.45-.04-.68-.05v0c-.52-1-1.55-1.62-2.67-1.62h-1.5v0c-1.13-.01-2.15.62-2.67 1.61 -.23.01-.45.03-.68.05 -1.51.12-2.61 1.37-2.67 2.83Zm5.99-3v0c-.83 0-1.5.67-1.5 1.5h4.5v0c0-.83-.68-1.5-1.5-1.5h-1.5Z"/><path d="M3 9.37c0-1.04.84-1.88 1.875-1.88h9.75c1.03 0 1.875.84 1.875 1.875v11.25c0 1.03-.84 1.875-1.875 1.875h-9.75v0C3.835 22.49 3 21.65 3 20.615V9.36Zm9.586 4.59v0c.25-.33.2-.8-.12-1.06 -.33-.26-.8-.21-1.06.11l-2.48 3.09 -.91-.907v-.001c-.31-.29-.78-.27-1.06.03 -.27.28-.27.73-.001 1.02l1.5 1.5h0c.29.29.76.29 1.06-.01 .01-.02.03-.05.05-.07l3-3.75Z"/></g></svg>
